img/Ready-Logo.svg

<svg fill="none" height="38" viewBox="0 0 248 38" width="248" xmlns="http://www.w3.org/2000/svg" xmlns:xlink="http://www.w3.org/1999/xlink"><clipPath id="a"><path d="m0 .5h248v37h-248z"/></clipPath><g clip-path="url(#a)" fill="#fff"><path d="m17.4117 25.9377-9.54116-4.3822c-.04357-.0203-.0915-.0292-.13941-.0261-.04791.0032-.09426.0184-.13481.0443s-.07401.0616-.09731.1039-.0357.0897-.03606.1381v2.2547c.00001.0556.01565.1101.04511.1572.02946.047.07154.0847.12137.1087l8.82927 4.0469c.5999.2766 1.2519.4197 1.9117.4197.6597 0 1.3117-.1431 1.9116-.4197l8.8293-4.0469c.0498-.024.0919-.0617.1214-.1087.0294-.0471.0451-.1016.0451-.1572v-2.2547c-.0004-.0484-.0128-.0958-.0361-.1381s-.0567-.078-.0973-.1039-.0869-.0411-.1348-.0443c-.0479-.0031-.0959.0058-.1394.0261l-9.5411 4.3822c-.3013.1373-.6281.2084-.9587.2084-.3307 0-.6575-.0711-.9587-.2084z"/><path d="m31.9817 16.4969-2.8073-1.295-10.6835 4.9546c-.0371.0197-.0785.03-.1205.03s-.0834-.0103-.1206-.03l-6.5329-3.041c-.0259-.0111-.048-.0296-.0635-.0533-.0155-.0236-.0238-.0513-.0238-.0796 0-.0284.0083-.0561.0238-.0797.0155-.0237.0376-.0422.0635-.0533l1.4868-.6822c.0379-.0172.079-.0262.1206-.0262.0415 0 .0826.009.1205.0262l4.805 2.2547c.0372.0197.0786.03.1206.03s.0834-.0103.1205-.03l8.8063-4.0469-8.4503-3.9428c-.1496-.0687-.3121-.1043-.4765-.1043s-.3269.0356-.4765.1043l-13.13482 6.0645c-.04982.0225-.09208.059-.12164.1052s-.04514.1-.04485.155v1.3644c-.00029.0549.01529.1088.04485.155.02956.0461.07182.0827.12164.1051l13.13482 6.0645c.1496.0688.3121.1043.4765.1043s.3269-.0355.4765-.1043l13.1348-6.0645c.0498-.0224.092-.059.1216-.1051.0296-.0462.0451-.1001.0448-.155v-1.3644c.0003-.055-.0152-.1088-.0448-.155s-.0718-.0827-.1216-.1052z"/><path d="m55.8689 28.25h-5.006l-3.8577-7.0763h-1.3606v7.0763h-4.3113v-18.5h6.6019c2.0494 0 3.6511.4278 4.8452 1.3123.6493.492 1.1722 1.1335 1.5247 1.8708.3526.7373.5247 1.5489.5017 2.3669 0 3.515-2.2389 4.8794-3.5937 5.3072zm-6.3148-14.667c-.5282-.3989-1.2228-.4799-2.2102-.4799h-1.7223v4.7407h1.7223c.7729.0793 1.5502-.1017 2.2102-.5146.3083-.1991.5578-.478.7225-.8075.1646-.3296.2382-.6976.2132-1.0656.0178-.3695-.0614-.7373-.2298-1.0661-.1683-.3289-.4197-.6072-.7289-.807z"/><path d="m69.6926 28.25h-12.1417v-18.5h11.912v3.4688h-7.6294v3.7809h7.1931v3.4687h-7.1931v4.2897h7.8591z"/><path d="m89.1077 28.25h-4.6787l-1.3031-3.7231h-6.5445l-1.2974 3.7231h-4.4663l6.8889-18.5h4.4663zm-6.9692-7.0936-2.2963-6.6426-2.2963 6.6426z"/><path d="m104.12 26.0531c-1.522 1.2835-3.887 2.1969-7.1015 2.1969h-6.2115v-18.5h6.2115c3.1975 0 5.5625.9134 7.0845 2.2258 1.521 1.3123 2.979 3.434 2.979 7.0242s-1.418 5.735-2.962 7.0531zm-3.008-11.3948c-1.067-.9128-2.4372-1.384-3.8352-1.3181h-2.1872v11.2387h2.1872c1.4026.0702 2.7772-.4107 3.8352-1.3412.769-.7227 1.647-1.9599 1.647-4.2377.042-.7994-.083-1.5987-.367-2.3465-.284-.7477-.72-1.4274-1.28-1.9952z"/><path d="m123.426 9.75-6.401 11.0191v7.4809h-4.317v-7.4809l-6.389-11.0191h4.793l3.755 7.3711 3.754-7.3711z"/><path d="m143.576 28.25h-10.965v-18.5h10.752v2.1738h-8.169v5.521h7.716v2.1738h-7.716v6.4345h8.382z"/><path d="m158.054 28.25h-2.451v-2.035h-.029c-.486.7328-1.148 1.3293-1.925 1.7338s-1.644.6036-2.518.5787c-3.755 0-6.149-2.8906-6.149-6.6773 0-3.7868 2.394-6.5964 6.097-6.5964.863-.0349 1.72.151 2.492.5402s1.434.9691 1.923 1.6855h.051v-7.7295h2.532zm-6.47-10.8861c-2.526 0-4.018 1.9309-4.018 4.4805 0 2.5495 1.492 4.5036 4.018 4.5036s4.019-1.9599 4.019-4.5036c0-2.5438-1.487-4.4805-4.019-4.4805z"/><path d="m171.384 28.2499h-2.474v-1.8211c-.409.6697-.986 1.2184-1.674 1.5901-.688.3718-1.461.5532-2.241.5258-1.809 0-2.871-.6186-3.514-1.4742s-.93-2.1159-.93-3.9428v-7.6428h2.486v7.5618c0 1.7344.373 3.3763 2.635 3.3763s3.14-1.9309 3.14-4.0469v-6.8912h2.555z"/><path d="m184.852 26.6139c-.373.3758-1.676 1.9309-5.058 1.9309-3.381 0-6.424-2.5726-6.424-6.6542-.027-.8677.121-1.732.435-2.5406.313-.8086.787-1.5447 1.391-2.164.604-.6192 1.326-1.1087 2.124-1.4388.797-.3301 1.652-.4941 2.514-.4819 3.382 0 4.765 1.665 4.897 1.8269l-.89 1.9078c-.485-.5128-1.072-.9164-1.723-1.1844s-1.351-.3944-2.054-.3708c-2.239 0-4.099 1.7344-4.099 4.3995 0 2.6652 1.676 4.5325 4.122 4.5325.715.0077 1.423-.1314 2.082-.4088.66-.2773 1.256-.687 1.753-1.2041z"/><path d="m196.959 28.2502h-2.474v-1.6072c-.489.596-1.103 1.0757-1.798 1.4045-.695.3289-1.453.4988-2.221.4975-2.342 0-4.363-1.4742-4.363-3.9428s2.021-3.752 4.949-3.885l3.381-.133v-.5145c0-1.9252-1.303-2.8906-3.14-2.8906-1.342.0267-2.654.4053-3.806 1.0984l-.769-1.7344c1.443-.831 3.073-1.2749 4.736-1.2892 2.101 0 3.324.5781 4.179 1.4511s1.355 1.9541 1.355 4.1278zm-2.526-6.1108-2.956.185c-2.05.1098-2.871.9943-2.871 2.1968s.93 2.2027 2.607 2.2027c.645-.0224 1.276-.2024 1.837-.5247s1.035-.7771 1.383-1.3253z"/><path d="m205.857 28.117c-.733.2833-1.511.4283-2.296.4278-.523.0398-1.047-.0606-1.519-.2911-.472-.2306-.875-.5829-1.168-1.0213-.534-.8036-.637-1.7979-.637-3.8098v-5.8159h-1.866v-2.0755h1.866v-3.7983h2.555v3.7983h3.031v2.0639h-3.031v5.7812c0 1.0696 0 1.798.315 2.3125.126.2198.312.3987.536.5155s.476.1666.727.1436c.453-.0013.899-.1019 1.309-.2948z"/><path d="m209.106 12.9124c-.307-.0147-.604-.1201-.853-.3031s-.438-.4356-.546-.7264c-.107-.2907-.128-.6069-.059-.9092.07-.3023.226-.5774.449-.7913.223-.21383.504-.35694.807-.41156.303-.05463.616-.01835.899.10431.283.12267.524.32635.693.58575.169.2593.259.563.258.8733 0 .2142-.043.4263-.126.6232-.084.197-.207.3747-.361.5224s-.337.2622-.536.3365c-.2.0744-.412.1071-.625.0961zm1.275 15.3377h-2.566v-12.7188h2.554z"/><path d="m219.061 28.5448c-3.783 0-6.711-2.6536-6.711-6.6196 0-3.9659 2.928-6.6542 6.711-6.6542.88-.0327 1.757.1165 2.577.4385.82.3219 1.566.8097 2.191 1.4332.626.6236 1.118 1.3697 1.446 2.1923.328.8225.486 1.7041.462 2.5902 0 3.966-2.927 6.6196-6.676 6.6196zm0-11.181c-2.555 0-4.128 1.983-4.128 4.4805s1.573 4.5036 4.128 4.5036 4.099-1.983 4.099-4.5036-1.567-4.4805-4.099-4.4805z"/><path d="m238.591 28.2499h-2.555v-7.1052c0-2.1448-.373-3.752-2.635-3.752-2.365 0-3.243 2.0118-3.243 4.4515v6.4057h-2.555v-12.7188h2.555l-.029 2.0119h.075c.374-.6973.932-1.2769 1.613-1.6748s1.458-.5985 2.244-.5799c3.594 0 4.524 2.3877 4.524 5.4459z"/></g></svg>

<svg width="248" height="38" viewBox="0 0 248 38" fill="none" xmlns="http://www.w3.org/2000/svg">
<g clip-path="url(#clip0_391_163)">
<path d="M17.4117 25.9377L7.87054 21.5555C7.82697 21.5352 7.77904 21.5263 7.73113 21.5294C7.68322 21.5326 7.63687 21.5478 7.59632 21.5737C7.55577 21.5996 7.52231 21.6353 7.49901 21.6776C7.47571 21.7199 7.46331 21.7673 7.46295 21.8157V24.0704C7.46296 24.126 7.4786 24.1805 7.50806 24.2276C7.53752 24.2746 7.5796 24.3123 7.62943 24.3363L16.4587 28.3832C17.0586 28.6598 17.7106 28.8029 18.3704 28.8029C19.0301 28.8029 19.6821 28.6598 20.282 28.3832L29.1113 24.3363C29.1611 24.3123 29.2032 24.2746 29.2327 24.2276C29.2621 24.1805 29.2778 24.126 29.2778 24.0704V21.8157C29.2774 21.7673 29.265 21.7199 29.2417 21.6776C29.2184 21.6353 29.185 21.5996 29.1444 21.5737C29.1038 21.5478 29.0575 21.5326 29.0096 21.5294C28.9617 21.5263 28.9137 21.5352 28.8702 21.5555L19.3291 25.9377C19.0278 26.075 18.701 26.1461 18.3704 26.1461C18.0397 26.1461 17.7129 26.075 17.4117 25.9377Z" fill="white"/>
<path d="M31.9817 16.4969L29.1744 15.2019L18.4909 20.1565C18.4538 20.1762 18.4124 20.1865 18.3704 20.1865C18.3284 20.1865 18.287 20.1762 18.2498 20.1565L11.7169 17.1155C11.691 17.1044 11.6689 17.0859 11.6534 17.0622C11.6379 17.0386 11.6296 17.0109 11.6296 16.9826C11.6296 16.9542 11.6379 16.9265 11.6534 16.9029C11.6689 16.8792 11.691 16.8607 11.7169 16.8496L13.2037 16.1674C13.2416 16.1502 13.2827 16.1412 13.3243 16.1412C13.3658 16.1412 13.4069 16.1502 13.4448 16.1674L18.2498 18.4221C18.287 18.4418 18.3284 18.4521 18.3704 18.4521C18.4124 18.4521 18.4538 18.4418 18.4909 18.4221L27.2972 14.3752L18.8469 10.4324C18.6973 10.3637 18.5348 10.3281 18.3704 10.3281C18.206 10.3281 18.0435 10.3637 17.8939 10.4324L4.75908 16.4969C4.70926 16.5194 4.667 16.5559 4.63744 16.6021C4.60788 16.6483 4.5923 16.7021 4.59259 16.7571V18.1215C4.5923 18.1764 4.60788 18.2303 4.63744 18.2765C4.667 18.3226 4.70926 18.3592 4.75908 18.3816L17.8939 24.4461C18.0435 24.5149 18.206 24.5504 18.3704 24.5504C18.5348 24.5504 18.6973 24.5149 18.8469 24.4461L31.9817 18.3816C32.0315 18.3592 32.0737 18.3226 32.1033 18.2765C32.1329 18.2303 32.1484 18.1764 32.1481 18.1215V16.7571C32.1484 16.7021 32.1329 16.6483 32.1033 16.6021C32.0737 16.5559 32.0315 16.5194 31.9817 16.4969Z" fill="white"/>
<path d="M55.8689 28.25H50.8629L47.0052 21.1737H45.6446V28.25H41.3333V9.75H47.9352C49.9846 9.75 51.5863 10.1778 52.7804 11.0623C53.4297 11.5543 53.9526 12.1958 54.3051 12.9331C54.6577 13.6704 54.8298 14.482 54.8068 15.3C54.8068 18.815 52.5679 20.1794 51.2131 20.6072L55.8689 28.25ZM49.5541 13.583C49.0259 13.1841 48.3313 13.1031 47.3439 13.1031H45.6216V17.8438H47.3439C48.1168 17.9231 48.8941 17.7421 49.5541 17.3292C49.8624 17.1301 50.1119 16.8512 50.2766 16.5217C50.4412 16.1921 50.5148 15.8241 50.4898 15.4561C50.5076 15.0866 50.4284 14.7188 50.26 14.39C50.0917 14.0611 49.8403 13.7828 49.5311 13.583H49.5541Z" fill="white"/>
<path d="M69.6926 28.25H57.5509V9.75H69.4629V13.2188H61.8335V16.9997H69.0266V20.4684H61.8335V24.7581H69.6926V28.25Z" fill="white"/>
<path d="M89.1077 28.25H84.429L83.1259 24.5269H76.5814L75.284 28.25H70.8177L77.7066 9.75H82.1729L89.1077 28.25ZM82.1385 21.1564L79.8422 14.5138L77.5459 21.1564H82.1385Z" fill="white"/>
<path d="M104.12 26.0531C102.598 27.3366 100.233 28.25 97.0185 28.25H90.807V9.75H97.0185C100.216 9.75 102.581 10.6634 104.103 11.9758C105.624 13.2881 107.082 15.4098 107.082 19C107.082 22.5902 105.664 24.735 104.12 26.0531ZM101.112 14.6583C100.045 13.7455 98.6748 13.2743 97.2768 13.3402H95.0896V24.5789H97.2768C98.6794 24.6491 100.054 24.1682 101.112 23.2377C101.881 22.515 102.759 21.2778 102.759 19C102.801 18.2006 102.676 17.4013 102.392 16.6535C102.108 15.9058 101.672 15.2261 101.112 14.6583Z" fill="white"/>
<path d="M123.426 9.75L117.025 20.7691V28.25H112.708V20.7691L106.319 9.75H111.112L114.867 17.1211L118.621 9.75H123.426Z" fill="white"/>
<path d="M143.576 28.25H132.611V9.75H143.363V11.9238H135.194V17.4448H142.91V19.6186H135.194V26.0531H143.576V28.25Z" fill="white"/>
<path d="M158.054 28.25H155.603V26.215H155.574C155.088 26.9478 154.426 27.5443 153.649 27.9488C152.872 28.3533 152.005 28.5524 151.131 28.5275C147.376 28.5275 144.982 25.6369 144.982 21.8502C144.982 18.0634 147.376 15.2538 151.079 15.2538C151.942 15.2189 152.799 15.4048 153.571 15.794C154.343 16.1832 155.005 16.7631 155.494 17.4795H155.545V9.75H158.077L158.054 28.25ZM151.584 17.3639C149.058 17.3639 147.566 19.2948 147.566 21.8444C147.566 24.3939 149.058 26.348 151.584 26.348C154.11 26.348 155.603 24.3881 155.603 21.8444C155.603 19.3006 154.116 17.3639 151.584 17.3639Z" fill="white"/>
<path d="M171.384 28.2499H168.91V26.4288C168.501 27.0985 167.924 27.6472 167.236 28.0189C166.548 28.3907 165.775 28.5721 164.995 28.5447C163.186 28.5447 162.124 27.9261 161.481 27.0705C160.838 26.2149 160.551 24.9546 160.551 23.1277V15.4849H163.037V23.0467C163.037 24.7811 163.41 26.423 165.672 26.423C167.934 26.423 168.812 24.4921 168.812 22.3761V15.4849H171.367L171.384 28.2499Z" fill="white"/>
<path d="M184.852 26.6139C184.479 26.9897 183.176 28.5448 179.794 28.5448C176.413 28.5448 173.37 25.9722 173.37 21.8906C173.343 21.0229 173.491 20.1586 173.805 19.35C174.118 18.5414 174.592 17.8053 175.196 17.186C175.8 16.5668 176.522 16.0773 177.32 15.7472C178.117 15.4171 178.972 15.2531 179.834 15.2653C183.216 15.2653 184.599 16.9303 184.731 17.0922L183.841 19C183.356 18.4872 182.769 18.0836 182.118 17.8156C181.467 17.5476 180.767 17.4212 180.064 17.4448C177.825 17.4448 175.965 19.1792 175.965 21.8443C175.965 24.5095 177.641 26.3768 180.087 26.3768C180.802 26.3845 181.51 26.2454 182.169 25.968C182.829 25.6907 183.425 25.281 183.922 24.7639L184.852 26.6139Z" fill="white"/>
<path d="M196.959 28.2502H194.485V26.643C193.996 27.239 193.382 27.7187 192.687 28.0475C191.992 28.3764 191.234 28.5463 190.466 28.545C188.124 28.545 186.103 27.0708 186.103 24.6022C186.103 22.1336 188.124 20.8502 191.052 20.7172L194.433 20.5842V20.0697C194.433 18.1445 193.13 17.1791 191.293 17.1791C189.951 17.2058 188.639 17.5844 187.487 18.2775L186.718 16.5431C188.161 15.7121 189.791 15.2682 191.454 15.2539C193.555 15.2539 194.778 15.832 195.633 16.705C196.488 17.578 196.988 18.6591 196.988 20.8328L196.959 28.2502ZM194.433 22.1394L191.477 22.3244C189.427 22.4342 188.606 23.3187 188.606 24.5212C188.606 25.7237 189.536 26.7239 191.213 26.7239C191.858 26.7015 192.489 26.5215 193.05 26.1992C193.611 25.8769 194.085 25.4221 194.433 24.8739V22.1394Z" fill="white"/>
<path d="M205.857 28.117C205.124 28.4003 204.346 28.5453 203.561 28.5448C203.038 28.5846 202.514 28.4842 202.042 28.2537C201.57 28.0231 201.167 27.6708 200.874 27.2324C200.34 26.4288 200.237 25.4345 200.237 23.4226V17.6067H198.371V15.5312H200.237V11.7329H202.792V15.5312H205.823V17.5951H202.792V23.3763C202.792 24.4459 202.792 25.1743 203.107 25.6888C203.233 25.9086 203.419 26.0875 203.643 26.2043C203.867 26.3211 204.119 26.3709 204.37 26.3479C204.823 26.3466 205.269 26.246 205.679 26.0531L205.857 28.117Z" fill="white"/>
<path d="M209.106 12.9124C208.799 12.8977 208.502 12.7923 208.253 12.6093C208.004 12.4263 207.815 12.1737 207.707 11.8829C207.6 11.5922 207.579 11.276 207.648 10.9737C207.718 10.6714 207.874 10.3963 208.097 10.1824C208.32 9.96857 208.601 9.82546 208.904 9.77084C209.207 9.71621 209.52 9.75249 209.803 9.87515C210.086 9.99782 210.327 10.2015 210.496 10.4609C210.665 10.7202 210.755 11.0239 210.754 11.3342C210.754 11.5484 210.711 11.7605 210.628 11.9574C210.544 12.1544 210.421 12.3321 210.267 12.4798C210.113 12.6275 209.93 12.742 209.731 12.8163C209.531 12.8907 209.319 12.9234 209.106 12.9124ZM210.381 28.2501H207.815V15.5313H210.369L210.381 28.2501Z" fill="white"/>
<path d="M219.061 28.5448C215.278 28.5448 212.35 25.8912 212.35 21.9252C212.35 17.9593 215.278 15.271 219.061 15.271C219.941 15.2383 220.818 15.3875 221.638 15.7095C222.458 16.0314 223.204 16.5192 223.829 17.1427C224.455 17.7663 224.947 18.5124 225.275 19.335C225.603 20.1575 225.761 21.0391 225.737 21.9252C225.737 25.8912 222.81 28.5448 219.061 28.5448ZM219.061 17.3638C216.506 17.3638 214.933 19.3468 214.933 21.8443C214.933 24.3418 216.506 26.3479 219.061 26.3479C221.616 26.3479 223.16 24.3649 223.16 21.8443C223.16 19.3237 221.593 17.3638 219.061 17.3638Z" fill="white"/>
<path d="M238.591 28.2499H236.036V21.1447C236.036 18.9999 235.663 17.3927 233.401 17.3927C231.036 17.3927 230.158 19.4045 230.158 21.8442V28.2499H227.603V15.5311H230.158L230.129 17.543H230.204C230.578 16.8457 231.136 16.2661 231.817 15.8682C232.498 15.4703 233.275 15.2697 234.061 15.2883C237.655 15.2883 238.585 17.676 238.585 20.7342L238.591 28.2499Z" fill="white"/>
</g>
<defs>
<clipPath id="clip0_391_163">
<rect width="248" height="37" fill="white" transform="translate(0 0.5)"/>
</clipPath>
</defs>
</svg>
